X:679
%%etbk:tnset id:415,pos:1,rep:3x,ant:
%%etbk:wsite https://thesession.org/tunes/173
%%etbk:video src:ytube,cde:EkZ9yQZGNPA,desc:
%%etbk:video src:ytube,cde:Xn4Xiojy5nU,desc:first tune
%%etbk:color #ccffcc
%%etbk:pldat 2016-09-17T15:31,2016-09-16T17:24,2016-09-13T16:27,2016-09-11T16:52,2016-09-10T15:43,2016-09-06T18:07,2016-09-03T11:32,2016-08-06T12:43,2016-08-02T16:44,2016-07-19T21:33,2016-07-15T17:28,2016-06-16T19:42,2016-06-01T18:20,2016-05-24T17:45,2016-05-14T18:00,2016-05-12T19:01,2016-05-11T18:13,2016-05-10T19:49,2016-04-23T16:09,2016-04-21T19:19,2016-04-20T10:50,2016-04-18T18:38,2016-04-12T17:22,2016-01-13T17:44,2015-12-15T15:58,2015-06-05T17:57,2015-05-10T14:59,2015-05-06T17:40,2015-04-26T20:59,2015-04-25T17:03,2015-04-12T12:09,2015-04-09T19:42
T: Miss Lyall
Z: Piano Box Version by Martin Fleischmann
H: Created 2015-04-09 /  Last Modified 2016-08-06
R: strathspey
M: 4/4
L: 1/8
K: Ador
!4!Bc>B|: !3!A<A,A,>B, !3!C>!4!D!1!E>!2!F | !3!G>A !1!(3DEF !1!G>!4!B c>B | A<A,A,>B, !3!C>!4!D!1!E>!4!B | !5!(3cBA !4!(3BA^G  !3!A>Bc>B|
A<A,A,>B, !3!C>!4!D!1!E>!2!F | !3!G2 G>F G>!2!B c>d  | !5!(3edc (3Bcd (3cdc !1!(3EF!3!G  | !1!(3AB!3!c !2!(3B!1!A!2!^G A4:|
!2!Bc>d |:!2!e<aa>f g>fg>d | e<aa>f g>!1!A !2!(3Bcd | !2!e<aa>f g>fg>d  | (3eae (3dcB A>Bc>d |
e<aa>f g>fg>d | e<aa>!2!f !3!g>!2!f !3!g>a | !5!(3bag !2!(3fga g>!1!A !2!(3Bcd  |1!5!(3eAe (3dcB A>Bc>d :|2 (3eae (3dcB (3cdc (3BcB  ||


